X:89
T:Marscillois March. LIT.089
M:2/2
Q:1/4=135
L:1/4
B:Wm. Litten MS, 1802
Z:Village Music Project 2017 Anne Wride
K:G
z//D//D//D// | GGAA | d>B G/G/G/F/ | Ec2 A/F/ | G2 zG/A/ |
BBBc/B/ | B/A/ A zA/B/ | ccc d/c/ | B2 z d/d/ |
dB/G/ d B/G/ | D2 z/D/D/D/ | A2 cA | GGGF/F/ |
EE/E/ GF/G/ | A2 z A | _B>B A/B/ c/G/ | A2 z _B/A/ |
GGGA/G/ | G/F/ F2 z/d/ | d2 d/A/ _B/G/ | A2 zd |
d2 d/A/ _B/G/ | A2 zD | B/G/ G2 G | B4 |
c2de | A3 z/e/ | d2-d/B/ c/A/ | G3 |]

